X:118
T:Hughie Shorty's reel
R:Reel
O:Cape Breton
C:Johnny Wilmot
S:SF Scottish Fiddler's Handout
B:SF Scottish Fiddler's Handout
Z:Transcription, chords:Mike Long
M:C|
L:1/8
K:G
D2|\
"G"G2 Bd "D"cAFA|"G"GABd g2 fg|"C"ecAc "G"dBGB|"Am"cAAB "D"AFDF|\
"G"G2 Bd "D"cAFA|"G"GABd g2 fg|
"C"ecAc "G"dBGB|"C"cA"D"GF "G"G2:|\
Bd|"G"g2 dg bgag|"C"ec ~c2 efge|"G"dB ~B2 dBGB|"Am"cAAB "D"AF D2|
"G"g2 dg bgag|"C"ec ~c2 efge|"G"dB ~B2 dBGB|"C"cA"D"GF "G"G2Bd||\
"G"g2 dg bgag|"Am/C"ecea "C"g2fe|
"G"dB ~B2 dBGB|"Am"cAAB "D"AFDB,|\
"C"C2EC "Bm"B,DGB|"Am"cdef "G"g2 fg|"C"ecAc "G"dBGB|"C"cA"D"GF "G"G2|]
